icon/fa/lock-open.svg

<svg xmlns="http://www.w3.org/2000/svg" viewBox="0 0 576 512"><!--! Font Awesome Free 6.1.2 by @fontawesome - https://fontawesome.com License - https://fontawesome.com/license/free (Icons: CC BY 4.0, Fonts: SIL OFL 1.1, Code: MIT License) Copyright 2022 Fonticons, Inc.--><path d="M352 192h32c35.3 0 64 28.7 64 64v192c0 35.3-28.7 64-64 64H64c-35.35 0-64-28.7-64-64V256c0-35.3 28.65-64 64-64h224v-48C288 64.47 352.5 0 432 0s144 64.47 144 144v48c0 17.7-14.3 32-32 32s-32-14.3-32-32v-48c0-44.18-35.8-80-80-80s-80 35.82-80 80v48z"/></svg>

<svg xmlns="http://www.w3.org/2000/svg" viewBox="0 0 576 512" height="1em" width="1em">
<!--! Font Awesome Free 6.1.2 by @fontawesome - https://fontawesome.com License - https://fontawesome.com/license/free (Icons: CC BY 4.0, Fonts: SIL OFL 1.1, Code: MIT License) Copyright 2022 Fonticons, Inc.-->
  <path d="M352 192H384C419.3 192 448 220.7 448 256V448C448 483.3 419.3 512 384 512H64C28.65 512 0 483.3 0 448V256C0 220.7 28.65 192 64 192H288V144C288 64.47 352.5 0 432 0C511.5 0 576 64.47 576 144V192C576 209.7 561.7 224 544 224C526.3 224 512 209.7 512 192V144C512 99.82 476.2 64 432 64C387.8 64 352 99.82 352 144V192z"/>
</svg>
